X:1
T:Chinese Dance (Tea)
T:Chinese Dance (Tea)
T:The Nutcracker, Piano Arrangement for 3 hands
T:Hinci
C:Hinci
%%score { 1 | 2 | 3 }
L:1/8
Q:1/4=126
M:4/4
K:Bb
V:1 treble nm="Piano" snm="Pno."
V:2 bass 
V:3 bass 
V:1
"^Allegro moderato." z8 | z4 z2!mf! (7:4:7(b/c'/d'/e'/f'/g'/a'/) | %2
 !tenuto!b'2 !tenuto!a'!tenuto!g' Tf'4({=e'f'} | g') z (!>!f'2- (5:4:5f'/d'/b/f/d/ .[B,B]).[Bb] | %4
 .[Cc].[cc'].[A,A].[Aa] .[F,F].[Ff].[Cc].[cc'] | %5
 .[Dd].[dd'].[B,B].[Bb] .[F,F].[Ff] (7:4:7(b/c'/d'/e'/f'/g'/a'/) | %6
 !tenuto!b'2 !tenuto!a'!tenuto!g' Tf'4({=e'f'} | g') z (!>!f'2- (5:4:5f'/d'/b/f/d/ .[B,B]).[Bb] | %8
 .[Cc].[cc'].[A,A].[Aa] .[F,F].[Ff].[Cc].[cc'] | %9
 .[Dd].[dd'].[B,B].[Bb] .[F,F].[Ff] (6:4:6(g'/f'/e'/d'/c'/b/) | %10
 !tenuto!a2 !tenuto!g!tenuto!a (9:8:9(f/4g/4f/4g/4f/4g/4f/4=e/4f/4) !tenuto!g!tenuto!a | %11
 !tenuto!b z (!>!B2- (5:4:5B/d/f/b/d'/ f').[Ff] | %12
 .[G,G].[Gg].[^G,^G].[G^g] .[A,A].[Aa].[Dd].[dd'] | %13
 .[Cc].[cc'].[B,B].[Bb] .[F,F].[Ff] (6:4:6(g'/f'/e'/d'/c'/b/) | %14
 !tenuto!a2 !tenuto!g!tenuto!a (9:8:9(f/4g/4f/4g/4f/4g/4f/4=e/4f/4) !tenuto!g!tenuto!a | %15
 !tenuto!b z (!>!B2- (5:4:5B/d/f/b/d'/ f').[Ff] | %16
 .[G,G].[Gg].[^G,^G].[G^g] .[A,A].[Aa].[Dd].[dd'] | %17
 .[Cc].[cc'].[B,B].[Bb] .[F,F].[Ff]!<(! (7:4:7(b/c'/d'/e'/f'/g'/a'/)!<)! | %18
!f! b'2 a'g' Tf'4{=e'f'} | g' z (!>!f'2- (5:4:5f'/d'/b/f/d/ .[B,B]).[Bb] | %20
 .[Cc].[cc'].[A,A].[Aa] .[F,F].[Ff].[Cc].[cc'] | %21
 .[Dd].[dd'].[B,B].[Bb] .[F,F].[Ff] (7:4:7(b/c'/d'/e'/f'/g'/a'/) | %22
 !tenuto!b'2 !tenuto!a'!tenuto!g' Tf'4({=e'f'} | g') z (!>!f'2- (5:4:5f'/d'/b/f/d/ .[B,B]).[Bb] | %24
 .[Cc].[cc'].[A,A].[Aa] .[F,F].[Ff].[Cc].[cc'] | %25
 .[Dd].[dd'].[B,B].[Bb] .[F,F].[Ff]"_cresc." .B/d/.b/ z/ | %26
 .c/e/.c'/ z/ .A/c/.a/ z/ .F/A/.f/ z/ .c/e/.c'/ z/ | %27
 .d/f/.d'/ z/ .B/d/.b/ z/ .F/B/.f/ z/ .c/e/.c'/ z/ | %28
 .d/f/.d'/ z/ .B/d/.b/ z/ .F/B/.f/ z/ .c/f/.c'/ z/ | %29
 .d/f/"^poco rit.".d'/ z/ .B/d/[Q:1/4=125].b/ z/ .d/f/[Q:1/4=124].d'/ z/ .B/d/[Q:1/4=123].b/ z/ | %30
 .d/f/[Q:1/4=122].d'/ z/ .B/d/[Q:1/4=108]!ff!.b/ z/ z!mf! !arpeggio![fd'f']-[fd'f'] z |] %31
V:2
!p! .[D,,F,,B,,].[B,,,D,,].[D,,F,,].[B,,,D,,] .[D,,F,,B,,].[B,,,D,,].[D,,F,,].[B,,,D,,] | %1
 .[D,,F,,B,,].[B,,,D,,].[D,,F,,].[B,,,D,,] .[D,,F,,B,,].[B,,,D,,].[D,,F,,].[B,,,D,,] | %2
 .[D,,F,,B,,].[B,,,D,,].[D,,F,,].[B,,,D,,] .[D,,F,,B,,].[B,,,D,,].[D,,F,,].[B,,,D,,] | %3
 .[D,,F,,B,,].[B,,,D,,].[D,,F,,].[B,,,D,,] .[D,,F,,B,,].[B,,,D,,].[D,,F,,].[B,,,D,,] | %4
 .[D,,F,,B,,].[B,,,D,,].[D,,F,,].[B,,,D,,] .[D,,F,,B,,].[B,,,D,,].[D,,F,,].[B,,,D,,] | %5
 .[D,,F,,B,,].[B,,,D,,].[D,,F,,].[B,,,D,,] .[D,,F,,B,,].[B,,,D,,].[D,,F,,].[B,,,D,,] | %6
 .[D,,F,,B,,].[B,,,D,,].[D,,F,,].[B,,,D,,] .[D,,F,,B,,].[B,,,D,,].[D,,F,,].[B,,,D,,] | %7
 .[D,,F,,B,,].[B,,,D,,].[D,,F,,].[B,,,D,,] .[D,,F,,B,,].[B,,,D,,].[D,,F,,].[B,,,D,,] | %8
 .[D,,F,,B,,].[B,,,D,,].[D,,F,,].[B,,,D,,] .[D,,F,,B,,].[B,,,D,,].[D,,F,,].[B,,,D,,] | %9
 .[D,,F,,B,,].[B,,,D,,].[D,,F,,].[B,,,D,,] .[D,,F,,B,,].[B,,,D,,].[D,,F,,].[B,,,D,,] | %10
 .[D,,F,,B,,].[B,,,D,,].[D,,F,,].[B,,,D,,] .[D,,F,,B,,].[B,,,D,,].[D,,F,,].[B,,,D,,] | %11
 .[D,,F,,B,,].[B,,,D,,].[D,,F,,].[B,,,D,,] .[D,,F,,B,,].[B,,,D,,].[D,,F,,].[B,,,D,,] | %12
 .[D,,F,,B,,].[B,,,D,,].[D,,F,,].[B,,,D,,] .[D,,F,,B,,].[B,,,D,,].[D,,F,,].[B,,,D,,] | %13
 .[D,,F,,B,,].[B,,,D,,].[D,,F,,].[B,,,D,,] .[D,,F,,B,,].[B,,,D,,].[D,,F,,].[B,,,D,,] | %14
 .[D,,F,,B,,].[B,,,D,,].[D,,F,,].[B,,,D,,] .[D,,F,,B,,].[B,,,D,,].[D,,F,,].[B,,,D,,] | %15
 .[D,,F,,B,,].[B,,,D,,].[D,,F,,].[B,,,D,,] .[D,,F,,B,,].[B,,,D,,].[D,,F,,].[B,,,D,,] | %16
 .[D,,F,,B,,].[B,,,D,,].[D,,F,,].[B,,,D,,] .[D,,F,,B,,].[B,,,D,,].[D,,F,,].[B,,,D,,] | %17
 .[D,,F,,B,,].[B,,,D,,].[D,,F,,].[B,,,D,,] .[D,,F,,B,,].[B,,,D,,].[D,,F,,].[B,,,D,,] | %18
!mp! F,,/B,,/D,/F,/ F,,/B,,/D,/F,/ F,,/B,,/D,/F,/ F,,/B,,/D,/F,/ | %19
 F,,/B,,/D,/F,/ F,,/B,,/D,/F,/ F,,/B,,/D,/F,/ F,,/B,,/D,/F,/ | %20
 F,,/C,/E,/F,/ F,,/C,/E,/F,/ F,,/C,/E,/F,/ F,,/B,,/D,/F,/ | %21
 F,,/B,,/D,/F,/ F,,/B,,/D,/F,/ F,,/B,,/D,/F,/ F,,/B,,/D,/F,/ | %22
 F,,/B,,/D,/F,/ F,,/B,,/D,/F,/ F,,/B,,/D,/F,/ F,,/B,,/D,/F,/ | %23
 F,,/B,,/D,/F,/ F,,/B,,/D,/F,/ F,,/B,,/D,/F,/ F,,/B,,/D,/F,/ | %24
 F,,/C,/E,/F,/ F,,/C,/E,/F,/ F,,/C,/E,/F,/ F,,/C,/E,/F,/ | %25
 F,,/B,,/D,/F,/ F,,/B,,/D,/F,/ F,,/B,,/D,/F,/ F,,/B,,/D,/F,/ | %26
 F,,/B,,/D,/F,/ F,,/B,,/D,/F,/ F,,/B,,/D,/F,/ F,,/B,,/D,/F,/ | %27
 F,,/B,,/D,/F,/ F,,/B,,/D,/F,/ F,,/B,,/D,/F,/ F,,/B,,/D,/F,/ | %28
 F,,/B,,/D,/F,/ F,,/B,,/D,/F,/ F,,/B,,/D,/F,/ F,,/B,,/D,/F,/ | %29
 F,,/B,,/D,/F,/ F,,/B,,/D,/F,/ F,,/B,,/D,/F,/ F,,/B,,/D,/F,/ | %30
 F,,/B,,/D,/F,/ F,,/B,,/D,/F,/ z [F,DF] z z |] %31
V:3
 z8 | z8 | z8 | z8 | z8 | z8 | z8 | z8 | z8 | z8 | z8 | z8 | z8 | z8 | z8 | z8 | z8 | z8 | %18
!mp! .[D,,F,,B,,].[B,,,D,,].[D,,F,,].[B,,,D,,] .[D,,F,,B,,].[B,,,D,,].[D,,F,,].[B,,,D,,] | %19
 .[D,,F,,B,,].[B,,,D,,].[D,,F,,].[B,,,D,,] .[D,,F,,B,,].[B,,,D,,].[D,,F,,].[B,,,D,,] | %20
 .[D,,F,,B,,].[B,,,D,,].[D,,F,,].[B,,,D,,] .[D,,F,,B,,].[B,,,D,,].[D,,F,,].[B,,,D,,] | %21
 .[D,,F,,B,,].[B,,,D,,].[D,,F,,].[B,,,D,,] .[D,,F,,B,,].[B,,,D,,].[D,,F,,].[B,,,D,,] | %22
 .[D,,F,,B,,].[B,,,D,,].[D,,F,,].[B,,,D,,] .[D,,F,,B,,].[B,,,D,,].[D,,F,,].[B,,,D,,] | %23
 .[D,,F,,B,,].[B,,,D,,].[D,,F,,].[B,,,D,,] .[D,,F,,B,,].[B,,,D,,].[D,,F,,].[B,,,D,,] | %24
 .[D,,F,,B,,].[B,,,D,,].[D,,F,,].[B,,,D,,] .[D,,F,,B,,].[B,,,D,,].[D,,F,,].[B,,,D,,] | %25
 .[D,,F,,B,,].[B,,,D,,].[D,,F,,].[B,,,D,,] .[D,,F,,B,,].[B,,,D,,].B,,!>!.B, | %26
 .C,!>!.C.A,,!>!.A, .F,,!>!.F,.C,!>!.C | .D,!>!.D.B,,!>!.B, .F,,!>!.F,.C,!>!.C | %28
 .D,!>!.D.B,,!>!.B, .F,,!>!.F,.C,!>!.C | .D,!>!.D.B,,!>!.B, .D,!>!.D.B,,!>!.B, | %30
 .D,!>!.D.B,,!>!.B, z4 |] %31

